X:1
T:Title
%%score { ( 1 3 ) | 2 }
L:1/8
M:4/4
K:G
V:1 treble nm="Grand Piano"
V:3 treble 
V:2 bass 
V:1
 z4 z2[Q:1/4=106] [B,D]2 | [B,D]2 [B,G]2 [DG]2 A2 | B2 d2 d4 | B3 c BAGB | %4
[M:7/8] [FA]2 [DG]2 [DG]3 |[M:1/4] [B,D]2 |[M:4/4] [B,D]2 [B,G]2 [DG]2 A2 | B2 d2 d4 | B3 c BAGB | %9
[M:7/8] [FA]2 G2 G3 |[M:1/4] Bc |[M:4/4] [Bd]4 [GB]2 z2 | [Ac]4 [FA]4 | BBAG d2 B2 | [DFA]6 Bc | %15
 [Bd]4 [GB]2 z2 | [Gc]4 [EA]2 z2 | [DGB][DGB][CGA][B,G] [DGB]2 [CFA]2 |[M:3/4] [G,B,DG]6 |] %19
V:2
 z4 z2 [G,,G,]2 | [G,,G,]2 [G,,G,]2 [B,,G,]2 [D,F,D]2 | [G,D]2 [G,B,D]2 [G,B,D]4 | %3
 [G,DG]3 [G,EG] [G,DG][G,CD][G,B,D][G,DG] |[M:7/8][K:bass] [D,C]2 [G,B,]2 [G,B,]3 | %5
[M:1/4] [G,,G,]2 |[M:4/4] [G,,G,]2 [G,,G,]2 [B,,G,]2 [D,F,D]2 | [G,D]2 [G,B,D]2 [G,B,D]4 | %8
 [G,DG]3 [G,EG] [G,DG][G,CD][G,B,D][G,DG] |[M:7/8][K:bass] [D,C]2 [G,B,D]2[K:treble] [G,B,D]3 | %10
[M:1/4] GA |[M:4/4] G,G,G,G, G,G,BB | D,D,D,D, D, D,3 | [G,DG][G,DG][G,CG][G,B,] [B,DG]2 [G,DG]2 | %14
 D,6 GA | G,G,G,G, G,G,[K:treble]=FF | C,C,C,C, C,C,EE | D,D,D,D, D,2 D,2 |[M:3/4] G,,6 |] %19
V:3
 x8 | x8 | x8 | x8 |[M:7/8] x7 |[M:1/4] x2 |[M:4/4] x8 | x8 | x8 |[M:7/8] x7 |[M:1/4] x2 | %11
[M:4/4] DDDD DDdd | DDDD D D3 | x8 | x8 | DDDD DD[Gd][Gd] | EEEE CC[Ac][Ac] | x8 |[M:3/4] x6 |] %19

